X:1
T:Hilo marche
N:From the playing of Albert LaMadeleine (1905-1986)
M:C
L:1/8
R:March
N:First two parts of ABABCD tune.
D:Starr 15515 (78 RPM), Albert LaMadeleine (1928)
D: http://www.collectionscanada.ca/obj/m2/f7/15959.mp3
Z:Transcribed by Andrew Kuntz
K:F
C4 C2|F6F2|A4c4|c3cc2c2 |c4A4|B2B4B2|
B4G4|A2A4A2|A4C4| F6F2|A4c4|c3cc2c2 |
c4A4|B2B4B2|B4G4|C2c4c2 |c4 c4||
f4f4-|f2e2f2d2|c4 c4-|c2B2c2A2|G4 G2B2|
d2d4c2|F4F2A2|c2c6| f4f4-|f2e2f2d2|
c4 c4-|c2B2c2A2|G4 G2B2|d2 d4cc|F6 F2-|F2||

